X: 18776
T: If It's A Bundle Of Sticks, I'm Your Girl
R: jig
M: 6/8
K: Dmajor
A|:DFA def|geg fed|gag fed|cde edc|
~B3 ~G3|~A3 DFA|FAd gfe|1 gfe d2 A:|2 gfe d2 c||
|:~B3 GAB|AFD ~D3|~B3 GBd|cde cBA|
[1 ~B3 GAB|dAF ~D3|~E3 EGA|Bcd edc:|
[2 ~B3 ~d3|~c3 ~e3|fga bag|fed ecA||

